X:441
T:On Lough Neagh's Banks
N:"collected by F.O'Neill"
N:Irish title: air bruaca lo.ca-nea.g
B:O'Neill's 441
Z:Transcribed by henrik.norbeck@mailbox.swipnet.se
M:C
L:1/8
K:C
ef|g3 a gedc|dcde A3 c|GAG.E G2 cB|Adfe d2 c/d/e/f/|
g3 a gedc|fedc BA2 ed|cAGE G2 cd|e2 Bdc c2||
GF|E3 G AGA.c|dcd.e A3 a|gag.e fedc|fg a/g/f/e/ ed2 gf|
egab c'2 ba|gedc BA2 ed|cAGE G2 cd|e2 Bdc c2||
